luts/DJI OSMO Pocket 4 D-Log to Rec.709 V1.0.cube
# DaVinci Resolve Cube (3D LUT).
#
#Generated by LUT Editor.
#Not-Clipped.
#
LUT_3D_SIZE 5
0.0000000000 0.0000000000 0.0000000000
0.1957079044 0.0130600023 0.0107267076
0.6880094798 0.0677587862 0.0320700920
1.0000000000 0.1471195713 0.0687073526
1.0000000000 0.1593938569 0.0759037051
0.0138979523 0.1293265840 0.0146272036
0.1548846623 0.1695218693 0.0004638658
0.6946343931 0.1862939622 0.0000000000
1.0000000000 0.2345131136 0.0192949625
1.0000000000 0.2431333347 0.0265553992
0.1032133536 0.5019960140 0.0675487796
0.1654566084 0.5178092950 0.0898409645
0.5783663857 0.6195590062 0.0000000000
1.0000000000 0.6205226096 0.0000000000
1.0000000000 0.6150363728 0.0000000000
0.2063288667 0.8117578942 0.1446001839
0.2473856960 0.8206000481 0.1639775125
0.5016773751 0.9148173976 0.1125440149
0.9286030955 0.9913463424 0.0000000000
1.0000000000 1.0000000000 0.0000000000
0.2220260285 0.8588150751 0.1565769192
0.2607003235 0.8671660609 0.1749788928
0.5002593015 0.9559699994 0.1470025064
0.9062565238 1.0000000000 0.0000000000
0.9817791667 1.0000000000 0.0000000000
0.0027322063 0.0153055302 0.1492758798
0.1901617276 0.0095959539 0.1603931146
0.6843624910 0.0428105672 0.1928615087
1.0000000000 0.1270857180 0.2124647715
1.0000000000 0.1404679686 0.2160953265
0.0047903354 0.1463092969 0.1411851583
0.1582569966 0.1582569966 0.1582569966
0.6928737885 0.1621435741 0.1694630336
1.0000000000 0.2178425578 0.1882299031
1.0000000000 0.2269181722 0.1923261140
0.0637066913 0.5122408075 0.1729192118
0.1488116310 0.5266183723 0.1837048391
0.5838360621 0.6200738387 0.0877927172
1.0000000000 0.6129850180 0.0000000000
1.0000000000 0.6067802734 0.0000000000
0.1799147897 0.8184019430 0.2225919125
0.2298923141 0.8271284208 0.2337580397
0.5011189326 0.9166250424 0.2057412553
0.9319302504 0.9916382626 0.0000000000
1.0000000000 1.0000000000 0.0000000000
0.1973439064 0.8650175049 0.2314375557
0.2438023726 0.8733121087 0.2422603854
0.4983504063 0.9591978973 0.2233180059
0.9092062848 1.0000000000 0.1154040194
0.9849100101 1.0000000000 0.0000000000
0.0000000000 0.0687415292 0.5596187503
0.1838503771 0.0526659214 0.5659766514
0.6763469007 0.0373658406 0.5928760057
1.0000000000 0.0107310007 0.6416025715
1.0000000000 0.0058458556 0.6483045104
0.0000000000 0.1944882307 0.5671018068
0.1162190110 0.1729425346 0.5762143143
0.6730533250 0.1446447345 0.5988872392
1.0000000000 0.1297488832 0.6401542223
1.0000000000 0.1335403926 0.6441059945
0.0000000000 0.5546933243 0.5402002098
0.1090210534 0.5620232231 0.5494074017
0.5896013376 0.5896013376 0.5896013376
1.0000000000 0.5424283752 0.5707547872
1.0000000000 0.5439174694 0.5743657625
0.0298141990 0.8546747063 0.5571445721
0.1309067137 0.8621202688 0.5615475303
0.4719959694 0.9379524154 0.5644508221
0.9576922596 0.9948875959 0.4968151732
1.0000000000 1.0000000000 0.4352956965
0.0492510911 0.9008781571 0.5592290618
0.1431900561 0.9081002361 0.5635586337
0.4739772839 0.9786896172 0.5704903730
0.9281000071 1.0000000000 0.5095185318
1.0000000000 1.0000000000 0.4927543853
0.0000000000 0.1444309145 0.8997951894
0.1536341105 0.1505862150 0.9031662443
0.7075324109 0.0000000000 0.9250620263
1.0000000000 0.0853062325 0.9505917095
1.0000000000 0.0763253775 0.9588993792
0.0000000000 0.2578862940 0.9031652754
0.0520213828 0.2413311987 0.9086033710
0.6957954200 0.1074904484 0.9317581666
1.0000000000 0.1752567090 0.9542754718
1.0000000000 0.1714769855 0.9618835640
0.0000000000 0.6061664495 0.8713446208
0.0000000000 0.5987520623 0.8920079747
0.5634448691 0.5052068316 0.9939748381
1.0000000000 0.5108486720 0.9817228294
1.0000000000 0.5148618269 0.9818180688
0.0000000000 0.8925993770 0.8705145532
0.0975285738 0.8970052632 0.8760948744
0.4712966268 0.9334450177 0.9203743036
0.9459092018 0.9459092018 0.9459092018
1.0000000000 0.9404174461 0.9436198244
0.0000000000 0.9373168245 0.8724618785
0.1007942675 0.9419083246 0.8774595731
0.4701698425 0.9821079096 0.9152515833
0.9129169821 1.0000000000 0.9322394768
1.0000000000 1.0000000000 0.9299128612
0.0000000000 0.1562186043 0.9514542782
0.1514889077 0.1621046217 0.9547109040
0.7112207124 0.0000000000 0.9759328685
1.0000000000 0.0729824655 0.9983934427
1.0000000000 0.0941841202 1.0000000000
0.0000000000 0.2677069386 0.9543942298
0.0451573777 0.2508369180 0.9596437332
0.6991727191 0.1068820187 0.9823012908
1.0000000000 0.1672157973 1.0000000000
1.0000000000 0.1808053359 1.0000000000
0.0000000000 0.6087271797 0.9360457338
0.0000000000 0.5916730912 0.9672061426
0.5667555702 0.5063246778 1.0000000000
1.0000000000 0.5055282265 1.0000000000
1.0000000000 0.5128253691 1.0000000000
0.0000000000 0.9000799951 0.9191398653
0.0790573427 0.9040259343 0.9250234027
0.4686886773 0.9332709344 0.9740062265
0.9405945631 0.9326413575 1.0000000000
1.0000000000 0.9270626355 1.0000000000
0.0000000000 0.9439057426 0.9206709032
0.0951683533 0.9480482254 0.9259207160
0.4707007047 0.9823374647 0.9677695975
0.9073885227 1.0000000000 1.0000000000
1.0000000000 1.0000000000 1.0000000000
