luts/DJI OSMO Pocket 4 D-Log to Rec.709 vivid V1.0.cube
# DaVinci Resolve Cube (3D LUT).
#
#Generated by LUT Editor.
#Not-Clipped.
#
LUT_3D_SIZE	33
0.0000000000 0.0000000000 0.0000000000
0.0020083787 0.0000267688 0.0000108226
0.0044895221 0.0000598388 0.0000241928
0.0079106065 0.0001054369 0.0000426281
0.0140864298 0.0001877516 0.0000759080
0.0323666344 0.0003786562 0.0001530908
0.0606765668 0.0006772809 0.0002556731
0.0936276394 0.0010049425 0.0003793651
0.1343399781 0.0015018487 0.0006022947
0.1778808667 0.0022774868 0.0009470079
0.2404242744 0.0031040118 0.0012906874
0.2880763782 0.0039979718 0.0015922434
0.3318295354 0.0052003145 0.0020248333
0.3779502866 0.0065981180 0.0023923399
0.4299478062 0.0083280223 0.0029279278
0.4912003512 0.0105970913 0.0038063259
0.5640002392 0.0135293705 0.0050234456
0.6473928181 0.0174157314 0.0067025170
0.7367180112 0.0237836789 0.0087221975
0.8247401452 0.0327295792 0.0112930817
0.9018588176 0.0438959203 0.0143539529
0.9571427247 0.0560100721 0.0178232013
0.9889783966 0.0671448834 0.0209789823
0.9998783829 0.0764669840 0.0241678837
0.9998667281 0.0834742346 0.0270211364
0.9998576256 0.0889469640 0.0292495539
0.9998509204 0.0929783770 0.0308910879
0.9998462515 0.0957854624 0.0320340930
0.9998431986 0.0976209874 0.0327814927
0.9998413456 0.0986774615 0.0332361046
0.9998400732 0.0993849769 0.0335485710
0.9998386355 0.1001844186 0.0339016355
0.9998380011 0.1005371862 0.0340574314
0.0001146207 0.0011907619 0.0000231181
0.0013535954 0.0016455408 0.0000000000
0.0036487338 0.0018176968 0.0000000000
0.0070514439 0.0019264093 0.0000000000
0.0135146498 0.0019469180 0.0000000000
0.0325981121 0.0018293558 0.0000000000
0.0609926315 0.0022528910 0.0000000000
0.0939375726 0.0025686726 0.0000000000
0.1347461108 0.0028989708 0.0000000000
0.1775886184 0.0038328137 0.0003444648
0.2400985691 0.0046637425 0.0006886556
0.2878428915 0.0056106463 0.0009114918
0.3318650224 0.0068400444 0.0013478215
0.3779617973 0.0082690741 0.0017625808
0.4298584108 0.0100116742 0.0023276185
0.4909779431 0.0122695670 0.0032025790
0.5636435075 0.0151948028 0.0044046637
0.6469551911 0.0191036239 0.0060620447
0.7362234047 0.0260422513 0.0080719246
0.8244030384 0.0350564513 0.0106366390
0.9016617738 0.0462844704 0.0136975136
0.9569915468 0.0583372332 0.0171603940
0.9889225997 0.0694964585 0.0202914002
0.9998710665 0.0786173377 0.0232678407
0.9998594117 0.0856245795 0.0261210781
0.9998503092 0.0910973029 0.0283494853
0.9998436040 0.0951287121 0.0299910126
0.9998389351 0.0979357950 0.0311340134
0.9998358822 0.0996443704 0.0318979942
0.9998340292 0.1006797095 0.0323629535
0.9998327568 0.1013906365 0.0326822229
0.9998313191 0.1021939330 0.0330429745
0.9998306847 0.1025484016 0.0332021625
0.0002562228 0.0026618246 0.0000516781
0.0010163987 0.0033427653 0.0000118029
0.0030258222 0.0036784357 0.0000000000
0.0061423868 0.0039470646 0.0000000000
0.0121278821 0.0042399966 0.0000000000
0.0302885425 0.0043698524 0.0000000000
0.0612927044 0.0042586681 0.0000000000
0.0943120351 0.0045469112 0.0000000000
0.1350246770 0.0048052788 0.0000000000
0.1778929330 0.0057118630 0.0001407566
0.2395335322 0.0066728345 0.0002467781
0.2875262566 0.0076167996 0.0000838012
0.3319035863 0.0088663445 0.0005178333
0.3779735311 0.0103329346 0.0009899863
0.4297469981 0.0120910964 0.0015901096
0.4907025530 0.0143356205 0.0024597472
0.5632018139 0.0172533609 0.0036416924
0.6462893150 0.0217802534 0.0052697545
0.7356118498 0.0288333167 0.0072695419
0.8239862625 0.0379317131 0.0098264336
0.9014228183 0.0491677856 0.0128871521
0.9568046428 0.0612126062 0.0163420598
0.9889269360 0.0724202926 0.0194238230
0.9998620281 0.0812741575 0.0221564126
0.9998503733 0.0882813634 0.0250095893
0.9998412708 0.0937540630 0.0272379561
0.9998345655 0.0978010174 0.0289104863
0.9998298967 0.1004265812 0.0300819923
0.9998268437 0.1021323566 0.0308480289
0.9998249907 0.1031676923 0.0313129820
0.9998237183 0.1038786170 0.0316322472
0.9998222806 0.1046819111 0.0319929941
0.9998216462 0.1050363786 0.0321521800
0.0004514684 0.0046901756 0.0000910575
0.0008512284 0.0054893178 0.0000905953
0.0024835898 0.0060636794 0.0000119452
0.0053315448 0.0064814599 0.0000000000
0.0109579454 0.0069629130 0.0000000000
0.0276724708 0.0075392044 0.0000000000
0.0566525826 0.0080891957 0.0000000000
0.0928815654 0.0078938740 0.0000000000
0.1353670711 0.0074465122 0.0000000000
0.1782525380 0.0083421839 0.0001462857
0.2385159571 0.0095875867 0.0003545729
0.2867622703 0.0105471219 0.0000000000
0.3317016530 0.0117860453 0.0000000000
0.3779510596 0.0132158844 0.0000000000
0.4295859892 0.0149659230 0.0005808553
0.4903213569 0.0171850794 0.0014398512
0.5625379723 0.0204067991 0.0025956985
0.6453562037 0.0255416411 0.0041819515
0.7347683291 0.0326816242 0.0061659905
0.8234110183 0.0418974391 0.0087106407
0.9010948466 0.0531184801 0.0117708665
0.9565464156 0.0651780147 0.0152145965
0.9889328470 0.0762412941 0.0182318795
0.9998495662 0.0849357283 0.0208460792
0.9998379113 0.0919548341 0.0234972358
0.9998288088 0.0974553565 0.0257811053
0.9998221035 0.1012488489 0.0274634993
0.9998174346 0.1038574817 0.0286349607
0.9998143816 0.1055632417 0.0294009697
0.9998125286 0.1065985685 0.0298659064
0.9998112562 0.1073094871 0.0301851607
0.9998098185 0.1081127743 0.0305458954
0.9998091841 0.1084672389 0.0307050760
0.0008039305 0.0083518034 0.0001621463
0.0008809094 0.0091295786 0.0002551147
0.0019912620 0.0100723860 0.0000939179
0.0043587787 0.0107839813 0.0000215661
0.0094938906 0.0115415462 0.0000000000
0.0244581117 0.0125835614 0.0000000000
0.0509357994 0.0134047483 0.0000000000
0.0861747517 0.0148219102 0.0000000000
0.1302797342 0.0141279293 0.0000000000
0.1786481638 0.0132016861 0.0001440145
0.2366483993 0.0148579572 0.0005494844
0.2854105828 0.0158107082 0.0000000000
0.3310609773 0.0171572021 0.0000000000
0.3776928412 0.0186557693 0.0000000000
0.4293087158 0.0206638426 0.0000000000
0.4895250588 0.0234474660 0.0000000000
0.5611404028 0.0271468879 0.0007251118
0.6436680644 0.0323353751 0.0022248538
0.7332461094 0.0396254788 0.0041822701
0.8223852713 0.0489616806 0.0067054084
0.9005028254 0.0602488290 0.0097612361
0.9564064396 0.0724204564 0.0130990708
0.9889433181 0.0828516500 0.0160871651
0.9998270711 0.0915892372 0.0187890039
0.9998154159 0.0986090243 0.0210321814
0.9998063132 0.1036973151 0.0231712168
0.9997996078 0.1074435891 0.0248533939
0.9997949388 0.1100521409 0.0260247152
0.9997918858 0.1117578506 0.0267906370
0.9997900327 0.1127931478 0.0272555224
0.9997887603 0.1135040465 0.0275747421
0.9997873226 0.1143073117 0.0279354384
0.9997866882 0.1146617666 0.0280946023
0.0016335622 0.0169713064 0.0003270156
0.0017305928 0.0179374740 0.0004943502
0.0019927160 0.0192597727 0.0005071617
0.0034944969 0.0210402977 0.0002626046
0.0075671893 0.0229493668 0.0000691452
0.0197376215 0.0254077797 0.0000000000
0.0444879976 0.0275769098 0.0000000000
0.0768611853 0.0308351609 0.0000000000
0.1209553183 0.0328225989 0.0000000000
0.1670848359 0.0323691939 0.0000000000
0.2162167829 0.0356772122 0.0013194324
0.2772456849 0.0337420812 0.0000000000
0.3289558746 0.0329500518 0.0000000000
0.3767234734 0.0348045179 0.0000000000
0.4286433803 0.0369193303 0.0000000000
0.4879733227 0.0395717971 0.0000000000
0.5583554780 0.0431738495 0.0000000000
0.6400441313 0.0482386969 0.0000000000
0.7297483352 0.0555542645 0.0000000000
0.8200244277 0.0651060799 0.0020895215
0.8994424790 0.0764220233 0.0050804407
0.9564445309 0.0879548349 0.0083578997
0.9889672326 0.0983184239 0.0114564115
0.9997749765 0.1064185127 0.0141655229
0.9997633085 0.1129440970 0.0164055319
0.9997541856 0.1180428054 0.0181534959
0.9997474755 0.1217050362 0.0194429489
0.9997428033 0.1241500602 0.0203408455
0.9997397481 0.1257488532 0.0209279899
0.9997378938 0.1267192608 0.0212843692
0.9997366205 0.1273854886 0.0215353321
0.9997351818 0.1281368591 0.0218957354
0.9997345469 0.1284684151 0.0220547708
0.0031935444 0.0331981154 0.0005689173
0.0032890384 0.0341384682 0.0007707236
0.0034115766 0.0353821532 0.0008989810
0.0038588623 0.0372378807 0.0008801617
0.0065979402 0.0403347458 0.0004372767
0.0163982208 0.0443139212 0.0000668070
0.0381691433 0.0475447857 0.0000000000
0.0673810511 0.0509338682 0.0000000000
0.1111888200 0.0564465163 0.0000000000
0.1570051812 0.0586082668 0.0000000000
0.2038071480 0.0618702645 0.0009613292
0.2519748570 0.0658791148 0.0013670516
0.3079141326 0.0663982326 0.0001221731
0.3668853280 0.0649058470 0.0000408904
0.4271837462 0.0608514845 0.0000000000
0.4867462806 0.0628946866 0.0000000000
0.5551409177 0.0658275791 0.0000000000
0.6358218030 0.0708548196 0.0000000000
0.7266630035 0.0783716406 0.0000000000
0.8183132964 0.0877570162 0.0000000000
0.8981261062 0.0984811642 0.0000000000
0.9563399189 0.1097612223 0.0016738344
0.9889991922 0.1193728592 0.0047147770
0.9996985853 0.1270175897 0.0074070643
0.9996869168 0.1331182791 0.0096436319
0.9996676698 0.1378665074 0.0113695868
0.9996607461 0.1413395803 0.0126025939
0.9996559250 0.1436221533 0.0134633741
0.9996527726 0.1451147550 0.0140262804
0.9996508592 0.1460207210 0.0143679598
0.9996495453 0.1466428200 0.0146025855
0.9996480607 0.1473457546 0.0148677032
0.9996474056 0.1476559391 0.0149846935
0.0049296441 0.0512551788 0.0008441536
0.0050218895 0.0521572489 0.0010613116
0.0051397076 0.0533367024 0.0012422655
0.0050118576 0.0553547462 0.0012371889
0.0071288079 0.0577477866 0.0016179262
0.0145761402 0.0639269652 0.0002847256
0.0329115013 0.0683920225 0.0000103607
0.0590394580 0.0716539180 0.0000000000
0.1020638837 0.0799966620 0.0000000000
0.1480632220 0.0852994245 0.0000000000
0.1967258108 0.0877809221 0.0000000000
0.2425375139 0.0929468670 0.0010440867
0.2950501310 0.0950809633 0.0002580540
0.3534176479 0.0974146292 0.0008950028
0.4162085573 0.0969913678 0.0004348700
0.4819915148 0.0908301861 0.0000000000
0.5514480869 0.0893396096 0.0000000000
0.6315814710 0.0938438398 0.0000000000
0.7231108958 0.1013550738 0.0000000000
0.8158741110 0.1110479803 0.0000000000
0.8970954346 0.1217199067 0.0000000000
0.9552924827 0.1324317924 0.0000000000
0.9886715360 0.1418963286 0.0000000000
0.9995993461 0.1492047307 0.0000000000
0.9995872120 0.1548683631 0.0020402614
0.9995778910 0.1592901776 0.0037297977
0.9995710248 0.1624578570 0.0049749475
0.9995662440 0.1646026318 0.0058422032
0.9995631179 0.1660051577 0.0064093966
0.9995612204 0.1668564618 0.0067536974
0.9995599176 0.1674410310 0.0069901312
0.9995584454 0.1681015637 0.0072572998
0.9995577958 0.1683930390 0.0073751976
0.0055158577 0.0749998664 0.0011220789
0.0055110389 0.0758657308 0.0013257894
0.0055117673 0.0769521625 0.0015290683
0.0055252186 0.0784296826 0.0017092852
0.0055791691 0.0810346097 0.0017934945
0.0112765549 0.0868590033 0.0010579138
0.0261777767 0.0930134590 0.0002828058
0.0515060271 0.0981069322 0.0000000000
0.0916774917 0.1063689543 0.0000000000
0.1380118728 0.1151891453 0.0000000000
0.1882840902 0.1203944511 0.0000000000
0.2350521181 0.1246244196 0.0000000000
0.2842549999 0.1286256309 0.0000000000
0.3408422973 0.1331076306 0.0013498888
0.4047941124 0.1355838522 0.0010316663
0.4688778629 0.1348555562 0.0002998013
0.5384733344 0.1302041703 0.0000000000
0.6256554205 0.1241200174 0.0000000000
0.7188616991 0.1316618581 0.0000000000
0.8138503243 0.1412712096 0.0000000000
0.8964260884 0.1518693688 0.0000000000
0.9552383075 0.1628066575 0.0000000000
0.9887207911 0.1714841287 0.0000000000
0.9995025781 0.1784118366 0.0000000000
0.9994842584 0.1836005739 0.0000000000
0.9994694598 0.1876111249 0.0000000000
0.9994582717 0.1905665939 0.0000000000
0.9994504732 0.1926266572 0.0000000000
0.9994453811 0.1939718110 0.0000000000
0.9994422901 0.1947883336 0.0000000000
0.9994401605 0.1953508944 0.0000000000
0.9994377635 0.1959841054 0.0000000000
0.9994367057 0.1962635297 0.0000000000
0.0061035193 0.1008843246 0.0015605541
0.0060956358 0.1016469724 0.0017680873
0.0060894027 0.1025893662 0.0019974368
0.0060922566 0.1039223637 0.0022317107
0.0061202593 0.1063459923 0.0024814643
0.0104944449 0.1117093930 0.0032104594
0.0207054920 0.1210403781 0.0008456206
0.0426586486 0.1275179480 0.0003531948
0.0800519465 0.1362596330 0.0000345532
0.1272099810 0.1479622404 0.0000000000
0.1795321017 0.1542098849 0.0000000000
0.2328434171 0.1576627387 0.0000000000
0.2810595461 0.1631946484 0.0000000000
0.3351166928 0.1692468311 0.0000000000
0.3984151848 0.1732801804 0.0002703372
0.4611035549 0.1748552459 0.0000704531
0.5248196756 0.1736503421 0.0000000000
0.6055328619 0.1726737964 0.0000000000
0.7142068577 0.1680819903 0.0000000000
0.8125205519 0.1753733932 0.0000000000
0.8960406016 0.1857705348 0.0000000000
0.9550247079 0.1960768301 0.0000000000
0.9886816932 0.2045571343 0.0000000000
0.9993706603 0.2111389597 0.0000000000
0.9993506895 0.2159736070 0.0000000000
0.9993353626 0.2196059639 0.0000000000
0.9993240644 0.2222835595 0.0000000000
0.9993161899 0.2241497644 0.0000000000
0.9993110438 0.2253693342 0.0000000000
0.9993079098 0.2261120857 0.0000000000
0.9993057670 0.2266198935 0.0000000000
0.9993033457 0.2271937362 0.0000000000
0.9993022771 0.2274469727 0.0000000000
0.0049746420 0.1369557022 0.0020869441
0.0049280566 0.1378423736 0.0022931334
0.0048712680 0.1389330749 0.0025284095
0.0047941817 0.1404406018 0.0028036649
0.0046587054 0.1431780762 0.0031434336
0.0043672767 0.1494189698 0.0032984209
0.0133348395 0.1564938508 0.0023492356
0.0302779285 0.1638873145 0.0009011226
0.0675927346 0.1703490312 0.0004073413
0.1137709830 0.1826609068 0.0001248544
0.1676998223 0.1918884985 0.0000000000
0.2227274370 0.1969918229 0.0000000000
0.2777479325 0.2011538913 0.0000000000
0.3320627281 0.2070448031 0.0000000000
0.3931455312 0.2131117899 0.0000000000
0.4571375513 0.2159442196 0.0000000000
0.5186203904 0.2170668965 0.0000000000
0.5937821468 0.2207283478 0.0000000000
0.6967170820 0.2259509729 0.0000000000
0.8079667534 0.2235109844 0.0000000000
0.8965484145 0.2257637545 0.0000000000
0.9550180987 0.2355671461 0.0000000000
0.9887934570 0.2432937986 0.0000000000
0.9992068358 0.2491573082 0.0000000000
0.9991867889 0.2535862167 0.0000000000
0.9991710969 0.2570529894 0.0000000000
0.9991595211 0.2596103930 0.0000000000
0.9991514520 0.2613449361 0.0000000000
0.9991461728 0.2624768574 0.0000000000
0.9991429668 0.2631642542 0.0000000000
0.9991407646 0.2636364166 0.0000000000
0.9991382738 0.2641704652 0.0000000000
0.9991371756 0.2644059416 0.0000000000
0.0032843939 0.1760773313 0.0027079904
0.0032710107 0.1769458593 0.0029072222
0.0032451473 0.1780244490 0.0031410062
0.0031844910 0.1795288051 0.0034429285
0.0030683747 0.1822850812 0.0038542660
0.0027942130 0.1884388708 0.0043479810
0.0103458442 0.1926638817 0.0058573521
0.0203182520 0.2036349107 0.0021888273
0.0541556035 0.2110884872 0.0009017051
0.1001627159 0.2192775722 0.0003779127
0.1547469737 0.2300584310 0.0000000000
0.2111125158 0.2375903283 0.0000000000
0.2678421944 0.2424629336 0.0000000000
0.3265562540 0.2480566918 0.0000000000
0.3906669066 0.2526770126 0.0000000000
0.4542100624 0.2571216513 0.0000000000
0.5186441447 0.2595023045 0.0000000000
0.5931704660 0.2665846596 0.0000000000
0.6910343403 0.2768313107 0.0000000000
0.7990247292 0.2843483732 0.0000000000
0.8933110337 0.2816776400 0.0000000000
0.9558150737 0.2781175704 0.0000000000
0.9890376491 0.2854517941 0.0000000000
0.9990291681 0.2907971022 0.0000000000
0.9990106087 0.2946311175 0.0000000000
0.9989960470 0.2976392951 0.0000000000
0.9989849657 0.2999284728 0.0000000000
0.9989771273 0.3015477313 0.0000000000
0.9989719929 0.3025859478 0.0000000000
0.9989688733 0.3032141323 0.0000000000
0.9989667298 0.3036457554 0.0000000000
0.9989643065 0.3041337180 0.0000000000
0.9989632368 0.3043491256 0.0000000000
0.0011664098 0.2221404649 0.0034547573
0.0011352174 0.2229514815 0.0036604668
0.0010964067 0.2239507988 0.0039032320
0.0010424022 0.2253237574 0.0042173271
0.0009412026 0.2278127480 0.0046928816
0.0006914696 0.2335900855 0.0053744020
0.0003623525 0.2416577364 0.0054189189
0.0124232508 0.2467849426 0.0050497506
0.0372681359 0.2566450492 0.0019001724
0.0846823531 0.2626047486 0.0008040502
0.1399603814 0.2723075447 0.0003600675
0.1984000435 0.2815726866 0.0000000000
0.2573033235 0.2862567404 0.0000000000
0.3190028218 0.2906091208 0.0000000000
0.3857514372 0.2949775243 0.0000000000
0.4527581915 0.2982907377 0.0000000000
0.5204388145 0.3029247374 0.0000000000
0.5992430329 0.3121698344 0.0000000000
0.6937116880 0.3264510675 0.0000000000
0.7965251739 0.3390733001 0.0000000000
0.8883194048 0.3460892086 0.0000000000
0.9524674786 0.3431289914 0.0000000000
0.9889627835 0.3318472271 0.0000000000
0.9988041554 0.3362537963 0.0000000000
0.9987875932 0.3394881747 0.0000000000
0.9988305963 0.3420624528 0.0000000000
0.9988208046 0.3439823252 0.0000000000
0.9988139549 0.3453253730 0.0000000000
0.9988094632 0.3462060621 0.0000000000
0.9988067324 0.3467414969 0.0000000000
0.9988048540 0.3471097873 0.0000000000
0.9988027342 0.3475254292 0.0000000000
0.9988017985 0.3477089011 0.0000000000
0.0003555740 0.2736695753 0.0042889276
0.0003611169 0.2744058593 0.0044906288
0.0003682497 0.2753140970 0.0047310837
0.0003785997 0.2765638170 0.0050467937
0.0003988250 0.2788123168 0.0055694593
0.0004590752 0.2839979592 0.0063899758
0.0005694287 0.2914990974 0.0069205264
0.0064377407 0.2974948880 0.0070950809
0.0238156733 0.3070308564 0.0043122495
0.0645364988 0.3141269280 0.0019879672
0.1224057688 0.3215630171 0.0011341432
0.1816079719 0.3303404741 0.0005078377
0.2430205534 0.3360821351 0.0000000000
0.3076419695 0.3384774785 0.0000000000
0.3781056186 0.3416317542 0.0000000000
0.4504115877 0.3452336869 0.0000000000
0.5242457994 0.3493379478 0.0000000000
0.6062688084 0.3605622979 0.0000000000
0.7011314253 0.3779388382 0.0000000000
0.7984877157 0.3940949721 0.0000000000
0.8861862896 0.4059886375 0.0000000000
0.9483337449 0.4113176376 0.0000000000
0.9849595342 0.4098524500 0.0000000000
0.9985010915 0.4025810945 0.0000000000
0.9985563846 0.3930566238 0.0000000000
0.9985661561 0.3913433984 0.0000000000
0.9985571988 0.3929138615 0.0000000000
0.9985509235 0.3940141133 0.0000000000
0.9985468013 0.3947368587 0.0000000000
0.9985442842 0.3951781788 0.0000000000
0.9985425645 0.3954796856 0.0000000000
0.9985406178 0.3958210026 0.0000000000
0.9985397599 0.3959714042 0.0000000000
0.0011311934 0.3351257276 0.0054628350
0.0011265841 0.3357502886 0.0056635454
0.0011210711 0.3365211112 0.0059047668
0.0011137983 0.3375825150 0.0062251499
0.0011016352 0.3394941149 0.0067675890
0.0010810948 0.3439794291 0.0077446805
0.0010666530 0.3504850536 0.0085944515
0.0010724699 0.3577454545 0.0087320186
0.0182080370 0.3619824274 0.0106709606
0.0427188958 0.3738739881 0.0046681640
0.0968182584 0.3809360566 0.0024323404
0.1600077420 0.3880652085 0.0011293133
0.2229555362 0.3947657828 0.0006300519
0.2906000255 0.3965712688 0.0000000000
0.3655198813 0.3974923401 0.0000000000
0.4440847335 0.4003942440 0.0000000000
0.5249688621 0.4047235224 0.0000000000
0.6137489935 0.4149527637 0.0000000000
0.7076184522 0.4348659149 0.0000000000
0.8021857860 0.4539322932 0.0000000000
0.8853345219 0.4687449973 0.0000000000
0.9449167873 0.4778108881 0.0000000000
0.9808629602 0.4819794149 0.0000000000
0.9982551388 0.4821934592 0.0000000000
0.9982763084 0.4790497806 0.0000000000
0.9982994140 0.4755802908 0.0000000000
0.9982746581 0.4720681765 0.0000000000
0.9981829923 0.4695022020 0.0000000000
0.9981950038 0.4677841107 0.0000000000
0.9982035998 0.4665545735 0.0000000000
0.9982095102 0.4657091764 0.0000000000
0.9982161976 0.4647526279 0.0000000000
0.9982191613 0.4643287163 0.0000000000
0.0011168555 0.4042136816 0.0072137216
0.0011086175 0.4047313589 0.0074192615
0.0010984056 0.4053706378 0.0076678659
0.0010842624 0.4062516007 0.0080010014
0.0010585495 0.4078403459 0.0085740327
0.0009970194 0.4115498038 0.0097114673
0.0009018234 0.4170398667 0.0108407894
0.0007926365 0.4231217220 0.0115915430
0.0019544582 0.4314273860 0.0112511551
0.0269372899 0.4366715195 0.0116076530
0.0678880405 0.4466658736 0.0054812208
0.1288929619 0.4525843422 0.0029436338
0.1962710412 0.4569096901 0.0016102049
0.2652258082 0.4603974655 0.0007602194
0.3451443336 0.4616965846 0.0000000000
0.4311308115 0.4643189458 0.0000000000
0.5184384214 0.4690105938 0.0000000000
0.6139376070 0.4783031084 0.0000000000
0.7105450221 0.4960830548 0.0000000000
0.8032077138 0.5180225315 0.0000000000
0.8843015621 0.5352703866 0.0000000000
0.9415856795 0.5464715746 0.0000000000
0.9768027415 0.5531050774 0.0000000000
0.9959976954 0.5561629599 0.0000000000
0.9979039117 0.5562077136 0.0000000000
0.9979062119 0.5559056669 0.0000000000
0.9979124244 0.5550898818 0.0000000000
0.9979167334 0.5545238625 0.0000000000
0.9979197796 0.5541181122 0.0000000000
0.9979215931 0.5538765426 0.0000000000
0.9979228770 0.5537055301 0.0000000000
0.9979250357 0.5534179911 0.0000000000
0.9979259895 0.5532909465 0.0000000000
0.0000000000 0.4770343050 0.0094774066
0.0000000000 0.4774530191 0.0096874998
0.0000000000 0.4779703428 0.0099428364
0.0000000000 0.4786837149 0.0102872645
0.0000000000 0.4799716479 0.0108865934
0.0000000000 0.4829214699 0.0121652001
0.0000000000 0.4873144169 0.0135586671
0.0000000000 0.4923344694 0.0146044284
0.0000000000 0.4993301007 0.0152919975
0.0066119010 0.5070398983 0.0143749465
0.0426026872 0.5132356868 0.0129287445
0.0934139568 0.5203624383 0.0069782614
0.1602478179 0.5247243471 0.0037423714
0.2351214778 0.5275337268 0.0022813442
0.3168034969 0.5313311910 0.0009982090
0.4098307409 0.5345280468 0.0000000000
0.5047779207 0.5401783636 0.0000000000
0.6050100868 0.5487602085 0.0000000000
0.7073838126 0.5656954308 0.0000000000
0.8010384016 0.5850645068 0.0000000000
0.8803082041 0.6043160279 0.0000000000
0.9384238528 0.6178846734 0.0000000000
0.9725511276 0.6250138536 0.0000000000
0.9920313730 0.6297805614 0.0000000000
0.9975037719 0.6318108887 0.0000000000
0.9974984324 0.6324434670 0.0000000000
0.9974972940 0.6325783397 0.0000000000
0.9974954515 0.6327966225 0.0000000000
0.9974941526 0.6329505052 0.0000000000
0.9974933484 0.6330457817 0.0000000000
0.9974934978 0.6330280747 0.0000000000
0.9974938173 0.6329902248 0.0000000000
0.9974939609 0.6329732081 0.0000000000
0.0000000000 0.5535180174 0.0121661882
0.0000000000 0.5538561793 0.0123762470
0.0000000000 0.5542741038 0.0126324840
0.0000000000 0.5548506363 0.0129798640
0.0000000000 0.5558922083 0.0135895508
0.0000000000 0.5583114809 0.0149171680
0.0000000000 0.5619165244 0.0166163465
0.0000000000 0.5661306345 0.0184060210
0.0000000000 0.5720442799 0.0200654529
0.0000000000 0.5792910875 0.0205731950
0.0187621855 0.5856936051 0.0216974277
0.0603655653 0.5926618443 0.0155426144
0.1176082420 0.5985588361 0.0090171621
0.1926611735 0.6023458909 0.0050353529
0.2821600478 0.6053481845 0.0030285142
0.3791701034 0.6106345173 0.0013915883
0.4820034521 0.6168141836 0.0000000000
0.5867307724 0.6260437886 0.0000000000
0.6952571050 0.6400759285 0.0000000000
0.7930562293 0.6580902794 0.0000000000
0.8744818159 0.6744316954 0.0000000000
0.9320583170 0.6883264610 0.0000000000
0.9670384599 0.6975546255 0.0000000000
0.9876071499 0.7021533257 0.0000000000
0.9970171214 0.7049102587 0.0000000000
0.9970018389 0.7063085633 0.0000000000
0.9969916869 0.7072374427 0.0000000000
0.9969852388 0.7078252434 0.0000000000
0.9969816136 0.7081517382 0.0000000000
0.9969797881 0.7083161487 0.0000000000
0.9969785260 0.7084298207 0.0000000000
0.9969770948 0.7085587113 0.0000000000
0.9969764616 0.7086157419 0.0000000000
0.0000000000 0.6349509531 0.0154751766
0.0000000000 0.6352209654 0.0156833294
0.0000000000 0.6355547125 0.0159379637
0.0000000000 0.6360219560 0.0163390226
0.0000000000 0.6368771443 0.0171369147
0.0000000000 0.6388547767 0.0189007559
0.0000000000 0.6417306855 0.0212691955
0.0000000000 0.6451009765 0.0233329597
0.0000000000 0.6498497863 0.0255313447
0.0000000000 0.6556333090 0.0273172735
0.0000000000 0.6631089204 0.0273214670
0.0335107981 0.6673634839 0.0316484172
0.0789507498 0.6737456765 0.0211330705
0.1440009103 0.6791859827 0.0119729687
0.2344344766 0.6829218517 0.0066327279
0.3403590180 0.6871363293 0.0040350101
0.4481228618 0.6939518900 0.0018596555
0.5593736725 0.7027361737 0.0000000000
0.6726610225 0.7149308178 0.0000000000
