luts/DJI OSMO Pocket 4 D-Log to Rec.709 V1.0.cube
# DaVinci Resolve Cube (3D LUT).
#
#Generated by LUT Editor.
#Not-Clipped.
#
LUT_3D_SIZE	33
0.0000000000 0.0000000000 0.0000000000
0.0214286631 0.0078176691 0.0082562202
0.0353720384 0.0073761414 0.0081956467
0.0523733516 0.0076342963 0.0085998437
0.0711962171 0.0080162982 0.0089569794
0.0948196930 0.0086110965 0.0093114617
0.1224507371 0.0095660986 0.0096659450
0.1556466853 0.0111122501 0.0099955601
0.1957079044 0.0130600023 0.0107267076
0.2403293577 0.0156037359 0.0117358667
0.2947119046 0.0193178015 0.0131937425
0.3561415199 0.0243443136 0.0151574414
0.4222015702 0.0307616770 0.0176595973
0.4892216759 0.0383743299 0.0206255697
0.5560982216 0.0471063016 0.0240266868
0.6224091256 0.0569108659 0.0278456638
0.6880094798 0.0677587862 0.0320700920
0.7527472702 0.0796069017 0.0366816700
0.8162536624 0.0922024141 0.0416447696
0.8782106366 0.1043248507 0.0469095112
0.9375611929 0.1159887526 0.0523501339
0.9903586836 0.1264002229 0.0575211229
1.0000000000 0.1349621956 0.0619982262
1.0000000000 0.1417962691 0.0657185722
1.0000000000 0.1471195713 0.0687073526
1.0000000000 0.1511226151 0.0710065030
1.0000000000 0.1539984505 0.0726871567
1.0000000000 0.1559689015 0.0738522612
1.0000000000 0.1572442905 0.0746122735
1.0000000000 0.1580135629 0.0750729284
1.0000000000 0.1585397806 0.0753890093
1.0000000000 0.1591324688 0.0757459626
1.0000000000 0.1593938569 0.0759037051
0.0056072206 0.0172844226 0.0075239836
0.0169675111 0.0180485579 0.0064099569
0.0322003100 0.0171679018 0.0060182926
0.0531646672 0.0159586440 0.0055433106
0.0729445027 0.0156384343 0.0060971045
0.0966085508 0.0158458911 0.0067657424
0.1240116690 0.0165066903 0.0074330810
0.1570323795 0.0177509293 0.0080488773
0.1967838714 0.0199329326 0.0086058497
0.2411974610 0.0225647625 0.0095657806
0.2954446192 0.0262222562 0.0110756116
0.3567678376 0.0311976043 0.0130741727
0.4227434461 0.0375728752 0.0155992262
0.4896990079 0.0451524446 0.0185765992
0.5565181747 0.0538717844 0.0219879864
0.6227831504 0.0636674640 0.0258147997
0.6883462358 0.0745092271 0.0300446522
0.7530534807 0.0865113147 0.0346627176
0.8165341837 0.0983629889 0.0396262142
0.8784696956 0.1100519231 0.0448925520
0.9378024084 0.1213462607 0.0503361383
0.9905872120 0.1314374907 0.0555406971
1.0000000000 0.1398029115 0.0599880245
1.0000000000 0.1464723327 0.0637094960
1.0000000000 0.1516475298 0.0667361700
1.0000000000 0.1555891534 0.0689995401
1.0000000000 0.1583767679 0.0707195325
1.0000000000 0.1603061408 0.0718853936
1.0000000000 0.1615553072 0.0726458933
1.0000000000 0.1623364113 0.0730666319
1.0000000000 0.1628519998 0.0733827601
1.0000000000 0.1634327726 0.0737397660
1.0000000000 0.1636889246 0.0738975315
0.0057192818 0.0240169913 0.0081186320
0.0127642507 0.0278864381 0.0061897645
0.0257601315 0.0280172028 0.0060790391
0.0479897798 0.0280593605 0.0033014202
0.0708846539 0.0267745404 0.0029421978
0.0977606927 0.0256461841 0.0029890467
0.1253038442 0.0256785730 0.0041298350
0.1584183725 0.0263450832 0.0051273172
0.1980631860 0.0280369763 0.0061198160
0.2422734158 0.0308165918 0.0069103828
0.2962893781 0.0346067186 0.0083563022
0.3574486372 0.0395921147 0.0103991261
0.4233030543 0.0459823425 0.0129490832
0.4901862784 0.0535489325 0.0159295325
0.5569559619 0.0622426016 0.0193377777
0.6231821222 0.0720144725 0.0231576335
0.6887144426 0.0830680079 0.0273822045
0.7533948663 0.0943329331 0.0319928140
0.8168478040 0.1056303110 0.0369617991
0.8787597893 0.1168395973 0.0422307233
0.9380726472 0.1277239579 0.0476737659
0.9908404201 0.1375078133 0.0528482140
1.0000000000 0.1455954404 0.0573296283
1.0000000000 0.1520759520 0.0610532737
1.0000000000 0.1571379896 0.0640445527
1.0000000000 0.1609516929 0.0663462877
1.0000000000 0.1636957974 0.0680281496
1.0000000000 0.1655777852 0.0691940738
1.0000000000 0.1667966755 0.0699546135
1.0000000000 0.1675321540 0.0704155851
1.0000000000 0.1680353772 0.0707318823
1.0000000000 0.1686022840 0.0710890787
1.0000000000 0.1688523413 0.0712469282
0.0060902076 0.0333260370 0.0088110699
0.0113396518 0.0376240124 0.0075583331
0.0211911127 0.0403534384 0.0064589404
0.0379001185 0.0418332740 0.0056190153
0.0635881922 0.0434059590 0.0000649876
0.0931343874 0.0417831668 0.0000000000
0.1259417195 0.0398400502 0.0000000000
0.1602809392 0.0391323809 0.0000766683
0.1994682447 0.0401939584 0.0020050106
0.2437159656 0.0421989246 0.0033383553
0.2974157379 0.0462306365 0.0046377106
0.3584534022 0.0511787416 0.0066023665
0.4241367743 0.0575557457 0.0092131169
0.4908714369 0.0651600605 0.0122458027
0.5575341717 0.0738898420 0.0156841952
0.6237011226 0.0838763927 0.0195024427
0.6891842874 0.0941538204 0.0237236211
0.7538255326 0.1046694602 0.0283307355
0.8172515470 0.1152894440 0.0332842277
0.8791413318 0.1258966773 0.0385389520
0.9384361206 0.1362521164 0.0439710727
0.9911881480 0.1456090541 0.0491357043
1.0000000000 0.1533823332 0.0536141087
1.0000000000 0.1596269008 0.0573347106
1.0000000000 0.1645135713 0.0603234587
1.0000000000 0.1681986430 0.0626252538
1.0000000000 0.1708526606 0.0643071556
1.0000000000 0.1726740195 0.0654731056
1.0000000000 0.1738541331 0.0662336614
1.0000000000 0.1745663974 0.0666946425
1.0000000000 0.1750538161 0.0670109461
1.0000000000 0.1756029946 0.0673681496
1.0000000000 0.1758452576 0.0675260022
0.0066644063 0.0436365515 0.0094881481
0.0116855726 0.0474302084 0.0089782988
0.0184968398 0.0526821970 0.0069112093
0.0330723239 0.0549549451 0.0065411558
0.0513516824 0.0571635758 0.0051080648
0.0849502097 0.0601497748 0.0000000000
0.1208974504 0.0580039867 0.0000000000
0.1600090079 0.0553272840 0.0000000000
0.2017519883 0.0541399658 0.0000000000
0.2448327508 0.0558753370 0.0000000000
0.2987880015 0.0588203984 0.0006480317
0.3594208474 0.0642869371 0.0023835189
0.4250780708 0.0704150274 0.0049969300
0.4916758026 0.0779876762 0.0080911106
0.5582352699 0.0868522938 0.0115613111
0.6242840252 0.0960579796 0.0154370043
0.6896938099 0.1056247343 0.0196803396
0.7542923979 0.1154509767 0.0242850784
0.8176820090 0.1254490058 0.0292343215
0.8795408357 0.1354952840 0.0344870468
0.9388091568 0.1453585832 0.0399121197
0.9915419839 0.1543009898 0.0450730736
1.0000000000 0.1617442094 0.0495415787
1.0000000000 0.1677382729 0.0532544218
1.0000000000 0.1724374995 0.0562369873
1.0000000000 0.1759872458 0.0585320007
1.0000000000 0.1785461999 0.0602089436
1.0000000000 0.1803034466 0.0613714545
1.0000000000 0.1814424990 0.0621297663
1.0000000000 0.1821301604 0.0625893872
1.0000000000 0.1826008200 0.0629047573
1.0000000000 0.1831311907 0.0632609066
1.0000000000 0.1833651820 0.0634182934
0.0075329907 0.0567791073 0.0102814622
0.0123922445 0.0602515645 0.0102556144
0.0181371840 0.0653775239 0.0090374104
0.0294223271 0.0710803214 0.0067971994
0.0454660366 0.0735300902 0.0065497585
0.0685118213 0.0767321741 0.0044555971
0.1116947609 0.0816280100 0.0000000000
0.1548952535 0.0783901342 0.0000000000
0.2016069617 0.0746808694 0.0000000000
0.2477740041 0.0733071804 0.0000000000
0.2999549235 0.0761876895 0.0000000000
0.3608872979 0.0803350401 0.0000000000
0.4261283881 0.0872692673 0.0000000000
0.4926934115 0.0941338685 0.0027202336
0.5591400513 0.1018922004 0.0062455740
0.6250885238 0.1102754649 0.0101592800
0.6904014715 0.1191073737 0.0144419051
0.7548931482 0.1283062573 0.0191127544
0.8182210507 0.1376685745 0.0240835325
0.8800422918 0.1471047558 0.0293293207
0.9392788181 0.1564171943 0.0347533088
0.9919859397 0.1649025939 0.0399091337
1.0000000000 0.1719917121 0.0443721940
1.0000000000 0.1777161438 0.0480803530
1.0000000000 0.1822107152 0.0510626692
1.0000000000 0.1856108340 0.0533574853
1.0000000000 0.1880644677 0.0550342825
1.0000000000 0.1897505882 0.0561966923
1.0000000000 0.1908440468 0.0569549380
1.0000000000 0.1915043744 0.0574145189
1.0000000000 0.1919564083 0.0577298616
1.0000000000 0.1924658702 0.0580859799
1.0000000000 0.1926906636 0.0582433530
0.0088562176 0.0747659022 0.0113026681
0.0135637284 0.0780458642 0.0116028341
0.0190398334 0.0828754665 0.0111932542
0.0272317507 0.0902141361 0.0087638559
0.0407096737 0.0950078502 0.0070180497
0.0608147615 0.0981226994 0.0065805973
0.0918937358 0.1023070127 0.0035614329
0.1442708197 0.1081986654 0.0000000000
0.1959536831 0.1045544299 0.0000000000
0.2476412831 0.1003671189 0.0000000000
0.3035312265 0.0989206646 0.0000000000
0.3622257067 0.1027088671 0.0000000000
0.4277412643 0.1073405685 0.0000000000
0.4939837770 0.1139154529 0.0000000000
0.5602824699 0.1207107591 0.0000000000
0.6261947032 0.1280622616 0.0028476525
0.6913848030 0.1360739200 0.0072036094
0.7557951176 0.1444660692 0.0118943757
0.8190275132 0.1531312077 0.0169135618
0.8807465858 0.1619657299 0.0222332251
0.9399098376 0.1707042114 0.0277049620
0.9925837091 0.1786538327 0.0328532286
1.0000000000 0.1853212712 0.0373127223
1.0000000000 0.1907204124 0.0410207774
1.0000000000 0.1949717161 0.0439993573
1.0000000000 0.1981933318 0.0462912431
1.0000000000 0.2005209937 0.0479658751
1.0000000000 0.2021218892 0.0491267735
1.0000000000 0.2031606520 0.0498840295
1.0000000000 0.2037881649 0.0503430091
1.0000000000 0.2042178280 0.0506579386
1.0000000000 0.2047021669 0.0510135897
1.0000000000 0.2049159054 0.0511707562
0.0108727338 0.0994637013 0.0126916983
0.0154833914 0.1022000705 0.0132673682
0.0208861845 0.1058203571 0.0133849948
0.0281433526 0.1115209195 0.0125388153
0.0376123799 0.1182968174 0.0096852505
0.0544984612 0.1236406009 0.0074007640
0.0817879588 0.1275614637 0.0066435132
0.1204544318 0.1328108950 0.0022896731
0.1835140638 0.1400153314 0.0000000000
0.2410754729 0.1359507894 0.0000000000
0.3037985620 0.1309060756 0.0000000000
0.3667509496 0.1294010237 0.0000000000
0.4292929214 0.1338690827 0.0000000000
0.4957955381 0.1383350068 0.0000000000
0.5619824026 0.1445878245 0.0000000000
0.6275201630 0.1512011146 0.0000000000
0.6927475355 0.1580215439 0.0000000000
0.7570768636 0.1654584417 0.0015349995
0.8201897400 0.1733086222 0.0066334395
0.8818262371 0.1813453871 0.0119827699
0.9409118236 0.1893707676 0.0174800111
0.9934941130 0.1967700520 0.0227024302
1.0000000000 0.2030072082 0.0272235581
1.0000000000 0.2080761309 0.0309825815
1.0000000000 0.2120608515 0.0339838831
1.0000000000 0.2150662573 0.0362723296
1.0000000000 0.2172411952 0.0379438127
1.0000000000 0.2187381546 0.0391032253
1.0000000000 0.2197116174 0.0398567686
1.0000000000 0.2202987100 0.0403157123
1.0000000000 0.2207008018 0.0406306155
1.0000000000 0.2211541626 0.0409862353
1.0000000000 0.2213542645 0.0411433874
0.0138979523 0.1293265840 0.0146272036
0.0184286857 0.1315336468 0.0154197629
0.0237326003 0.1344911329 0.0157903960
0.0305654273 0.1388754483 0.0160368097
0.0387303534 0.1442059666 0.0149424561
0.0506696939 0.1514760785 0.0113768984
0.0730934192 0.1580500871 0.0079536826
0.1086419121 0.1630038414 0.0067714572
0.1548846623 0.1695218693 0.0004638658
0.2256872625 0.1784008254 0.0000000000
0.2961007901 0.1735742870 0.0000000000
0.3667331837 0.1679324771 0.0000000000
0.4354093015 0.1656229999 0.0000000000
0.4974936910 0.1707280375 0.0000000000
0.5640684181 0.1745006254 0.0000000000
0.6297555823 0.1800430659 0.0000000000
0.6946343931 0.1862939622 0.0000000000
0.7586564364 0.1929253109 0.0000000000
0.8218062778 0.1995901291 0.0000000000
0.8833814348 0.2066504840 0.0000000000
0.9423520337 0.2138727934 0.0026950849
0.9948364163 0.2205902203 0.0079920913
1.0000000000 0.2262458030 0.0125192667
1.0000000000 0.2308590577 0.0162764750
1.0000000000 0.2345131136 0.0192949625
1.0000000000 0.2372947954 0.0216165758
1.0000000000 0.2393111106 0.0233124710
1.0000000000 0.2407009491 0.0244879077
1.0000000000 0.2416040797 0.0252545647
1.0000000000 0.2421501528 0.0257192123
1.0000000000 0.2425254907 0.0260356075
1.0000000000 0.2429471760 0.0263960979
1.0000000000 0.2431333347 0.0265553992
0.0180181409 0.1627751737 0.0171497115
0.0224005504 0.1646481202 0.0180348296
0.0277467372 0.1669379067 0.0188033141
0.0344119768 0.1704535886 0.0196103246
0.0419226028 0.1747027376 0.0196173948
0.0523482316 0.1804253788 0.0182436791
0.0689031613 0.1884949058 0.0139256755
0.0993018104 0.1967730076 0.0086581657
0.1418643055 0.2028970407 0.0067794036
0.1932421662 0.2103688729 0.0000000000
0.2791092679 0.2208059543 0.0000000000
0.3583235129 0.2152727678 0.0000000000
0.4341172246 0.2092523568 0.0000000000
0.5053308679 0.2058804766 0.0000000000
0.5677388922 0.2098577057 0.0000000000
0.6319142589 0.2144182207 0.0000000000
0.6969223037 0.2191400968 0.0000000000
0.7610376968 0.2250555766 0.0000000000
0.8238857693 0.2309009331 0.0000000000
0.8851113822 0.2373145882 0.0000000000
0.9441227083 0.2434609993 0.0000000000
0.9966386984 0.2492411833 0.0000000000
1.0000000000 0.2543040065 0.0000000000
1.0000000000 0.2584665949 0.0000000000
1.0000000000 0.2617804393 0.0000000000
1.0000000000 0.2643077473 0.0020311602
1.0000000000 0.2661436985 0.0037522548
1.0000000000 0.2674110986 0.0049447371
1.0000000000 0.2682354696 0.0057223392
1.0000000000 0.2687342219 0.0061935570
1.0000000000 0.2690760458 0.0065168442
1.0000000000 0.2694616817 0.0068818957
1.0000000000 0.2696319679 0.0070432036
0.0241058879 0.2037201064 0.0207824779
0.0283526728 0.2053020921 0.0217301042
0.0336914556 0.2070945274 0.0227995158
0.0402632580 0.2099396959 0.0239439452
0.0475463834 0.2132105804 0.0248665760
0.0570775195 0.2177377551 0.0249243135
0.0712387582 0.2242505321 0.0232340492
0.0941918472 0.2338371682 0.0173106029
0.1306804218 0.2439195489 0.0097108675
0.1777100977 0.2509476176 0.0070019567
0.2400056680 0.2601208361 0.0000000000
0.3375059117 0.2726329014 0.0000000000
0.4239576854 0.2668365886 0.0000000000
0.5009633924 0.2606554940 0.0000000000
0.5769038603 0.2544749467 0.0000000000
0.6391508416 0.2568307627 0.0000000000
0.6996752852 0.2624111745 0.0000000000
0.7637512647 0.2661501585 0.0000000000
0.8266411065 0.2708907826 0.0000000000
0.8880436380 0.2764179952 0.0000000000
0.9468071073 0.2817850445 0.0000000000
0.9989840121 0.2869916031 0.0000000000
1.0000000000 0.2915386641 0.0000000000
1.0000000000 0.2950871380 0.0000000000
1.0000000000 0.2978946685 0.0000000000
1.0000000000 0.3000468084 0.0000000000
1.0000000000 0.3016142013 0.0000000000
1.0000000000 0.3026984896 0.0000000000
1.0000000000 0.3034047243 0.0000000000
1.0000000000 0.3038323656 0.0000000000
1.0000000000 0.3041256088 0.0000000000
1.0000000000 0.3044565879 0.0000000000
1.0000000000 0.3046027897 0.0000000000
0.0324040478 0.2501234632 0.0256626740
0.0365441330 0.2514646327 0.0266510585
0.0417870335 0.2529431407 0.0278664612
0.0485143095 0.2551680896 0.0293849108
0.0554149696 0.2578934794 0.0306863685
0.0647514770 0.2613578079 0.0319369022
0.0777495757 0.2665516383 0.0320869144
0.0972298855 0.2743001021 0.0297822085
0.1258752337 0.2849554509 0.0230837353
0.1654137792 0.2971140713 0.0111139477
0.2225328408 0.3057570154 0.0071086219
0.2928410106 0.3162936079 0.0000000000
0.3988562919 0.3312268664 0.0000000000
0.4891408767 0.3257885492 0.0000000000
0.5662449043 0.3194536696 0.0000000000
0.6417846652 0.3135195235 0.0000000000
0.7105526822 0.3106589154 0.0000000000
0.7710889833 0.3138847006 0.0000000000
0.8295406335 0.3197235731 0.0000000000
0.8910230299 0.3231570055 0.0000000000
0.9498661919 0.3273248116 0.0000000000
1.0000000000 0.3317303922 0.0000000000
1.0000000000 0.3357541161 0.0000000000
1.0000000000 0.3387780832 0.0000000000
1.0000000000 0.3411971717 0.0000000000
1.0000000000 0.3430835107 0.0000000000
1.0000000000 0.3445040803 0.0000000000
1.0000000000 0.3454895817 0.0000000000
1.0000000000 0.3461331477 0.0000000000
1.0000000000 0.3465234628 0.0000000000
1.0000000000 0.3467913756 0.0000000000
1.0000000000 0.3470940197 0.0000000000
1.0000000000 0.3472277904 0.0000000000
0.0430405570 0.3001411666 0.0318699256
0.0470822095 0.3012976442 0.0328698314
0.0521842606 0.3025700645 0.0341314495
0.0591600696 0.3043034589 0.0359959796
0.0660302509 0.3065019151 0.0377271225
0.0747555630 0.3094960851 0.0392959816
0.0877131431 0.3134991073 0.0410420672
0.1045227858 0.3197891154 0.0411439508
0.1279098849 0.3292834897 0.0374389655
0.1605091528 0.3409354735 0.0289270564
0.2090971753 0.3555154358 0.0122136009
0.2739153124 0.3650158084 0.0073580016
0.3496677595 0.3766805166 0.0000000000
0.4593229420 0.3942862907 0.0000000000
0.5500940099 0.3897753267 0.0000000000
0.6299937991 0.3831449201 0.0000000000
0.7049747891 0.3772386385 0.0000000000
0.7783840127 0.3714283703 0.0000000000
0.8415150814 0.3708187685 0.0000000000
0.8993047698 0.3742033977 0.0000000000
0.9539581721 0.3795032030 0.0000000000
1.0000000000 0.3831464257 0.0000000000
1.0000000000 0.3856664312 0.0000000000
1.0000000000 0.3880489031 0.0000000000
1.0000000000 0.3901363202 0.0000000000
1.0000000000 0.3918051363 0.0000000000
1.0000000000 0.3930075951 0.0000000000
1.0000000000 0.3938505960 0.0000000000
1.0000000000 0.3944078210 0.0000000000
1.0000000000 0.3947472187 0.0000000000
1.0000000000 0.3949807991 0.0000000000
1.0000000000 0.3952451524 0.0000000000
1.0000000000 0.3953623256 0.0000000000
0.0556854586 0.3509673652 0.0392196132
0.0596343237 0.3519866593 0.0402084773
0.0646752346 0.3530817084 0.0415294938
0.0715956308 0.3545785467 0.0434441613
0.0786324684 0.3563393140 0.0455945777
0.0875608160 0.3587610774 0.0477683531
0.0986796817 0.3623079312 0.0498458888
0.1143532082 0.3672427214 0.0521393267
0.1349676420 0.3751318089 0.0516555752
0.1614809631 0.3862293510 0.0453552660
0.2010432326 0.4025570288 0.0259986696
0.2599015678 0.4155692023 0.0137528672
0.3301219894 0.4257387438 0.0068923213
0.4073263309 0.4379310305 0.0000000000
0.5191346588 0.4581834098 0.0000000000
0.6096178234 0.4545685156 0.0000000000
0.6925192465 0.4479790947 0.0000000000
0.7668199214 0.4420032135 0.0000000000
0.8390305355 0.4364016183 0.0000000000
0.9094598285 0.4305390580 0.0000000000
0.9660554338 0.4315523706 0.0000000000
1.0000000000 0.4342865621 0.0000000000
1.0000000000 0.4376808092 0.0000000000
1.0000000000 0.4409377224 0.0000000000
1.0000000000 0.4437713339 0.0000000000
1.0000000000 0.4446949392 0.0000000000
1.0000000000 0.4454068780 0.0000000000
1.0000000000 0.4459186515 0.0000000000
1.0000000000 0.4462656096 0.0000000000
1.0000000000 0.4464888732 0.0000000000
1.0000000000 0.4466432000 0.0000000000
1.0000000000 0.4468186621 0.0000000000
1.0000000000 0.4468964660 0.0000000000
0.0702067974 0.4017407839 0.0476419257
0.0740730926 0.4026538046 0.0486098923
0.0790622033 0.4036152970 0.0499659248
0.0860659000 0.4049472288 0.0518739005
0.0928664871 0.4064033067 0.0543199348
0.1008228019 0.4084573096 0.0568323387
0.1112170955 0.4113694793 0.0597274319
0.1251480899 0.4157232994 0.0626702358
0.1441645415 0.4222354226 0.0647788775
0.1680575762 0.4314569922 0.0631356926
0.2016283218 0.4459654464 0.0507837023
0.2500088296 0.4642445728 0.0236052464
0.3155652587 0.4763899763 0.0143403418
0.3874192945 0.4864566280 0.0061985484
0.4648654048 0.4990407511 0.0000000000
0.5780648084 0.5217983302 0.0000000000
0.6679484879 0.5189949718 0.0000000000
0.7539498207 0.5128135427 0.0000000000
0.8272534158 0.5067112009 0.0000000000
0.8979856981 0.5011622982 0.0000000000
0.9653766697 0.4959029837 0.0000000000
1.0000000000 0.4908659487 0.0000000000
1.0000000000 0.4912910718 0.0000000000
1.0000000000 0.4924076915 0.0000000000
1.0000000000 0.4937453242 0.0000000000
1.0000000000 0.4951316115 0.0000000000
1.0000000000 0.4961673199 0.0000000000
1.0000000000 0.4969404123 0.0000000000
1.0000000000 0.4974644114 0.0000000000
1.0000000000 0.4977845308 0.0000000000
1.0000000000 0.4980051966 0.0000000000
1.0000000000 0.4982557039 0.0000000000
1.0000000000 0.4983669077 0.0000000000
0.0866789169 0.4521241181 0.0570942590
0.0903512905 0.4529352306 0.0580788836
0.0948879656 0.4538120234 0.0594079132
0.1009939283 0.4549976324 0.0613394811
0.1070898195 0.4563070465 0.0638153396
0.1146703854 0.4579861719 0.0668253196
0.1240975342 0.4605638774 0.0699894990
0.1367570710 0.4644105427 0.0734825700
0.1545159079 0.4699127879 0.0774133385
0.1763115694 0.4778699380 0.0785732263
0.2069103200 0.4900221968 0.0734887814
0.2470204671 0.5080606912 0.0501791813
0.3045512287 0.5255696149 0.0220961785
0.3724855061 0.5371024209 0.0134467406
0.4446697118 0.5466756348 0.0055238971
0.5219205699 0.5596268753 0.0000000000
0.6364928847 0.5848909899 0.0000000000
0.7254128332 0.5826943392 0.0000000000
0.8109636974 0.5773559191 0.0000000000
0.8856919572 0.5710659796 0.0000000000
0.9538207807 0.5655966552 0.0000000000
1.0000000000 0.5608903753 0.0000000000
1.0000000000 0.5571008833 0.0000000000
1.0000000000 0.5539003927 0.0000000000
1.0000000000 0.5513810781 0.0000000000
1.0000000000 0.5502042700 0.0000000000
1.0000000000 0.5506013734 0.0000000000
1.0000000000 0.5508862784 0.0000000000
1.0000000000 0.5510809613 0.0000000000
1.0000000000 0.5512022256 0.0000000000
1.0000000000 0.5512869963 0.0000000000
1.0000000000 0.5513841640 0.0000000000
1.0000000000 0.5514275690 0.0000000000
0.1032133536 0.5019960140 0.0675487796
0.1065178228 0.5027250143 0.0685457261
0.1105428757 0.5035357704 0.0698339016
0.1161007924 0.5045995093 0.0717937655
0.1215828868 0.5057992084 0.0742573432
0.1285750188 0.5072817640 0.0774306840
0.1375070576 0.5094742380 0.0813719371
0.1494344054 0.5127770603 0.0856151218
0.1654566084 0.5178092950 0.0898409645
0.1863113349 0.5244319386 0.0938324529
0.2141937839 0.5351250166 0.0929080117
0.2506438222 0.5505086337 0.0801892211
0.2985430278 0.5700837611 0.0480187893
0.3604757679 0.5860021473 0.0223756369
0.4296039375 0.5969611497 0.0133390482
0.5014862749 0.6063174466 0.0043126112
0.5783663857 0.6195590062 0.0000000000
0.6912525441 0.6459302512 0.0000000000
0.7814453201 0.6455842179 0.0000000000
0.8653617863 0.6410936701 0.0000000000
0.9413922297 0.6349610101 0.0000000000
1.0000000000 0.6299240580 0.0000000000
1.0000000000 0.6259923672 0.0000000000
1.0000000000 0.6229209808 0.0000000000
1.0000000000 0.6205226096 0.0000000000
1.0000000000 0.6188007622 0.0000000000
1.0000000000 0.6175326470 0.0000000000
1.0000000000 0.6166284212 0.0000000000
1.0000000000 0.6160368145 0.0000000000
1.0000000000 0.6156792703 0.0000000000
1.0000000000 0.6154343823 0.0000000000
1.0000000000 0.6151582547 0.0000000000
1.0000000000 0.6150363728 0.0000000000
0.1195645973 0.5512332315 0.0789634892
0.1225664581 0.5518949202 0.0799697748
0.1261614227 0.5526534828 0.0814540036
0.1312534556 0.5536178006 0.0834235205
0.1362717062 0.5547085204 0.0858676646
0.1426464745 0.5560722592 0.0889279139
0.1512424235 0.5579217390 0.0929285058
0.1622519304 0.5609080722 0.0971375888
0.1772461353 0.5653719576 0.1018428204
0.1965951864 0.5713132514 0.1066325932
0.2226906258 0.5806919784 0.1087241359
0.2565787608 0.5940094720 0.1040457776
0.2984986711 0.6124245359 0.0804850051
0.3518873028 0.6323611384 0.0389609407
0.4169698047 0.6454168089 0.0234707092
0.4864000087 0.6560877177 0.0126502248
0.5577771707 0.6652774222 0.0021339372
0.6340715519 0.6786996365 0.0000000000
0.7442043616 0.7056574714 0.0000000000
0.8355358906 0.7075083909 0.0000000000
0.9162971238 0.7039128468 0.0000000000
0.9871523123 0.6988596635 0.0000000000
1.0000000000 0.6943727160 0.0000000000
1.0000000000 0.6911176785 0.0000000000
1.0000000000 0.6885927954 0.0000000000
1.0000000000 0.6867754441 0.0000000000
1.0000000000 0.6854801833 0.0000000000
1.0000000000 0.6845978213 0.0000000000
1.0000000000 0.6840256718 0.0000000000
1.0000000000 0.6836811371 0.0000000000
1.0000000000 0.6834456890 0.0000000000
1.0000000000 0.6831807121 0.0000000000
1.0000000000 0.6830639205 0.0000000000
0.1356296542 0.5995495240 0.0911668074
0.1383800828 0.6001554186 0.0921144871
0.1416102350 0.6008724328 0.0932061007
0.1463048793 0.6017546573 0.0950485265
0.1509381540 0.6027522090 0.0973479140
0.1567684648 0.6040235394 0.1001726902
0.1647528699 0.6057118070 0.1040011374
0.1753349585 0.6083043963 0.1085125747
0.1895914837 0.6122458108 0.1136674150
0.2072505034 0.6178176895 0.1183807298
0.2325473230 0.6258164154 0.1233835288
0.2638667514 0.6378481993 0.1224104643
0.3026815703 0.6540334903 0.1104024696
0.3526711233 0.6702879799 0.0934444885
0.4074019847 0.6920595890 0.0348392513
0.4734106774 0.7037059723 0.0244733743
0.5427949935 0.7143533645 0.0099511855
0.6133618657 0.7230044844 0.0009545937
0.6887180784 0.7367125186 0.0000000000
