luts/DJI OSMO Pocket 4 D-Log to Rec.709 vivid V1.0.cube
# DaVinci Resolve Cube (3D LUT).
#
#Generated by LUT Editor.
#Not-Clipped.
#
LUT_3D_SIZE 5
0.0000000000 0.0000000000 0.0000000000
0.1343399781 0.0015018487 0.0006022947
0.5640002392 0.0135293705 0.0050234456
0.9998667281 0.0834742346 0.0270211364
0.9998380011 0.1005371862 0.0340574314
0.0055158577 0.0749998664 0.0011220789
0.0916774917 0.1063689543 0.0000000000
0.5384733344 0.1302041703 0.0000000000
0.9994842584 0.1836005739 0.0000000000
0.9994367057 0.1962635297 0.0000000000
0.0000000000 0.4770343050 0.0094774066
0.0000000000 0.4993301007 0.0152919975
0.5047779207 0.5401783636 0.0000000000
0.9975037719 0.6318108887 0.0000000000
0.9974939609 0.6329732081 0.0000000000
0.0000000000 0.9355404078 0.0523406006
0.0000000000 0.9383868759 0.0646053612
0.1788273728 0.9564247902 0.0899171344
0.9528273932 0.9872474063 0.0000000000
0.9895166315 0.9902471373 0.0000000000
0.0000000000 0.9697804249 0.0638873993
0.0000000000 0.9714639976 0.0758185320
0.1024028313 0.9837348540 0.1107708534
0.9382692212 1.0000000000 0.0000000000
0.9819123230 1.0000000000 0.0000000000
0.0093165120 0.0000000000 0.0957070918
0.1378699335 0.0025204289 0.1111355578
0.5792153957 0.0092217338 0.1418125342
1.0000000000 0.0779278555 0.1757084627
1.0000000000 0.0960439763 0.1800705576
0.0048326569 0.1085934467 0.0968074923
0.1177375279 0.1177374677 0.1177366596
0.5644981219 0.1131861335 0.1265724546
0.9999010111 0.1713105804 0.1436618875
0.9998733734 0.1843328900 0.1483499080
0.0000000000 0.5115955067 0.0973410421
0.0000000000 0.5289341743 0.1030186031
0.5156463560 0.5524786912 0.0845066337
0.9977144087 0.6134106365 0.0289345453
0.9976740716 0.6116356894 0.0023732165
0.0000000000 0.9373967671 0.1333050986
0.0000000000 0.9400070274 0.1406767277
0.1870403718 0.9573637092 0.1670686934
0.9538081439 0.9874028976 0.0816428623
0.9900472967 0.9902248513 0.0729739578
0.0000000000 0.9706618756 0.1420986413
0.0000000000 0.9723691331 0.1489598122
0.1006594625 0.9845108097 0.1717404511
0.9389734309 1.0000000000 0.0878751327
0.9825704419 1.0000000000 0.0804265201
0.1035759413 0.0000000000 0.5157196213
0.2053124950 0.0148750935 0.5176871853
0.6461654043 0.0042174032 0.5681316432
1.0000000000 0.0165585572 0.6639909592
1.0000000000 0.0345815575 0.6668115373
0.0960213701 0.1550689314 0.5296869857
0.1606696698 0.1277978885 0.5352138512
0.6415404185 0.1020686836 0.5715469930
1.0000000000 0.1124494435 0.6542806339
1.0000000000 0.1270634813 0.6570310656
0.0000000000 0.5402126072 0.5026998630
0.0778027672 0.5432074065 0.5086988601
0.5539149210 0.5539147061 0.5539119421
1.0000000000 0.5095069643 0.5681581735
1.0000000000 0.5139849852 0.5732608314
0.0000000000 0.9431659693 0.4965121119
0.0000000000 0.9451892720 0.5012098620
0.2226730320 0.9604102813 0.5210091672
0.9621316235 0.9885173619 0.4663993413
0.9912872634 0.9900242522 0.4659444647
0.0000000000 0.9742118601 0.5011496869
0.0000000000 0.9755779951 0.5053691574
0.1642939223 0.9854185124 0.5257526136
0.9459559554 1.0000000000 0.4639614266
0.9878210941 1.0000000000 0.4664803188
0.3619062547 0.0000000000 0.9700069400
0.4003991087 0.0301500220 0.9703232965
0.7551123185 0.0000000000 0.9698843111
1.0000000000 0.0193357818 0.9836228283
1.0000000000 0.0188800864 0.9865645116
0.3623661011 0.1841449902 0.9696094277
0.3645958106 0.1569736000 0.9707973828
0.7424153960 0.0976338241 0.9712500016
1.0000000000 0.1112457930 0.9840530158
1.0000000000 0.1114699660 0.9868577664
0.2611354795 0.6564650377 0.9448353606
0.2815583232 0.6366466934 0.9543593461
0.6462561066 0.4885055626 0.9809972647
1.0000000000 0.4794433342 0.9870785995
1.0000000000 0.4819813813 0.9887383204
0.0000000000 0.9596165753 0.9450815372
0.0486317567 0.9605056317 0.9466179629
0.4319938684 0.9676370308 0.9574867807
0.9778312431 0.9778312431 0.9778298142
1.0000000000 0.9742180909 0.9775940560
0.0000000000 0.9850390503 0.9465480033
0.0000000000 0.9857413429 0.9477682643
0.3807575795 0.9909055118 0.9564966941
0.9517181938 1.0000000000 0.9684593710
0.9976774698 1.0000000000 0.9682168812
0.4098651361 0.0000000000 0.9948744754
0.4429055757 0.0308218894 0.9950259246
0.7617607807 0.0288688258 0.9941941463
1.0000000000 0.0334125854 0.9993542952
1.0000000000 0.0244381837 0.9999992958
0.4121518726 0.1876654059 0.9947404984
0.4138291552 0.1594097662 0.9953525380
0.7496825776 0.1301607712 0.9950730275
1.0000000000 0.1216358245 0.9996612185
1.0000000000 0.1153837692 0.9999992957
0.3213984115 0.6771560336 0.9806123441
0.3527038772 0.6376844881 0.9891856642
0.6539818771 0.5076238411 0.9999998821
1.0000000000 0.4786165178 0.9999992959
1.0000000000 0.4821199022 0.9999992959
0.0622337215 0.9645312742 0.9783946364
0.1231027309 0.9651880921 0.9794713591
0.4683209488 0.9703830428 0.9873402278
0.9781752243 0.9705894895 0.9999993219
1.0000000000 0.9665326695 0.9999991953
0.0000000000 0.9879500450 0.9794562422
0.0410184360 0.9884986215 0.9803414480
0.4290419345 0.9924666736 0.9866905874
0.9522856354 1.0000000000 0.9999993812
1.0000000000 1.0000000000 1.0000000000
